X: 3
T:The Night Peece
M:6/8
L:1/8
Q:100
R:Jig
K:D
f2d a2f|d2A df2|eg2 f>ed|Bde/2f/2 g2a||
bbg aag|f>ed e2A|ddc ddA|fe2 d3|bbg aag|f>ed e2A|ddc ddA|fe2 d3|bbg aag|
f>ed e2A|ddc ddA|fe2 d3||

